X:1
T:Quotiescunque manducabitis
T:William Byrd (c.1540-1623)
T:Quotiescunque manducabitis
T:© Choral Public Domain Library 2010
T:© Choral Public Domain Library 2010
T:© Choral Public Domain Library 2010
T:© Choral Public Domain Library 2010
T:© Choral Public Domain Library 2010
C:William Byrd (c.1540-1623)
Z:© Choral Public Domain Library 2010
%%score [ 1 2 3 4 ]
L:1/8
M:4/4
K:C
V:1 treble nm="Alto" snm="S."
V:2 treble-8 transpose=-12 nm="Tenor" snm="T."
V:3 treble-8 transpose=-12 nm="Tenor" snm="T."
V:4 bass nm="Bass" snm="B."
V:1
 [^Ce]2 |[M:4/2] A6 A2 A8 | B8 A8 | B12 A2 B2 | c8 B8 | c8 c4 A4- | A2 A2 A4 B6 c2 | d4 B4 A8- | %8
w: |Quo- ti- es-|cun- que,|quo- ti- es-|cun- que|man- du- ca-|* bi- tis pa- *|* nem hunc,|
 A8 z8 | z4 E4 F6 F2 | E4 D4 ^C8 | D4 A4 c6 c2 | B4 A4 ^G8 | A8 z8 | z4 A8 B4 | c6 B2 A2 D2 A4- | %16
w: _|et ca- li-|cem bi- be-|tis, et ca- li-|cem bi- be-|tis,|mor- tem|Do- mi- ni an- nun-|
 A4 ^G4 A6 =G2 | F4 D4 E2 F2 G4- | G4 G4 A8 | z4 B8 A4 | B6 c2 A4 D4- | D4 E4 G8 | d8 B4 c4- | %23
w: * ti- a- bi-|tis, an- nun- ti- a-|* bi- tis|do- nec|ve- ni- at, ve-|* ni- at,|do- nec ve-|
 c4 B4 A8 | z4 c6 A2 F4- | F4 A4 c8 | B8 z8 | G6 A2 B2 c2 d4- | d4 d4 A8 | c6 d2 e2 d2 c2 B2 | %30
w: * ni- at:|i- ta- que|_ qui- cun-|que|man- du- ca- * *|* ve- rit|pa- * * * * *|
 c8 B8 | z4 A4 B6 A2 | G4 c6 B2 A4 | d6 c2 B4 E4 | G6 F2 E2 D2 G4- | G4 ^F4 G8 | z8 z4 A4 | %37
w: * nem,|et bi- be-|rit ca- li- cem|Do- mi- ni in-|di- * * * *|* * gne,|et|
 B6 A2 G4 c4- | c4 B4 A8 | d6 c2 B4 G4 | A16 | A16 | z4 c8 G4 | c8 B8 | z4 B8 B4 | A4 B4 c6 B2 | %46
w: bi- be- rit ca-|* li- cem|Do- mi- ni in-|di-|gne,|re- us|e- rit|cor- po-|ris et san- gui-|
 A4 G8 ^F4 | G8 z4 G4- | G4 c4 B4 G4 | z8 z4 c4- | c4 e4 d4 B4 | z4 G8 B4 | A4 G4 c6 B2 | %53
w: nis Do- mi-|ni. Al-|* le- lu- ia.|Al-|* le- lu- ia.|Al- le-|lu- ia. Al- le-|
 d6 cB AB c4 B2 | A8 B4 c4- | c2 d2 e3 d c2 e2 d2 G2- | G2 G2 G4 | !fermata!G16 |] %58
w: lu- * * * * * *|* ia. Al-|* le- lu- * * * ia. Al-|* le- lu-|ia.|
V:2
 [^Fa]2 |[M:4/2] ^f12 e2 f2 | g8 ^f8 | g12 a2 g2 | g8 g8 | a8 g4 f4- | f2 f2 e4 g6 fe | %7
w: |Quo- ti- es-|cun- que,|quo- ti- es-|cun- que|man- du- ca-|* bi- tis pa- * *|
 d4 g4 ^f4 z2 d2 | f6 f2 e4 d4 | ^c8 d8 | z8 z4 e4 | f6 f2 e4 c4 | d8 e8 | e4 ^f4 g6 =f2 | %14
w: * nem hunc, et|ca- li- cem bi-|be- tis,|et|ca- li- cem bi-|be- tis,|mor- tem Do- mi-|
 e2 d2 f6 e2 d3 d | c4 G4 d6 c2 | B6 B2 A8 | z8 G4 e4- | e4 d4 c6 d2 | B8 z8 | z4 g8 ^f4 | %21
w: ni an- nun- ti- a- bi-|tis, an- nun- ti-|a- bi- tis,|an- nun-|* ti- a- bi-|tis|do- nec|
 g6 c2 d8 | z4 d8 e4 | d6 e2 ^f8 | z8 z4 a4- | a2 f2 c8 e4 | g8 ^f4 B4- | B2 c2 d6 c2 B4 | %28
w: ve- ni- at,|do- nec|ve- ni- at:|i-|* ta- que qui-|cun- que man-|* du- ca- ve- rit|
 d2 e2 f2 e2 d4 c4- | c2 d2 e2 f2 g8 | G6 A2 B2 c2 d4 | d8 z4 d4 | e6 d2 c4 f4- | f2 e2 d4 g6 f2 | %34
w: pa- * * * nem, pa-|* * * * nem,|pa- * * * *|nem, et|bi- be- rit ca-|* li- cem Do- mi-|
 e4 B4 c6 B2 | A2 G2 A4 G8 | z4 A4 d6 c2 | B4 g6 f2 e2 d2 | e4 d4 d4 A4 | B2 AG ^F2 A2 G4 d4 | %40
w: ni in- di- *|* * * gne,|et bi- be-|rit ca- li- cem Do-|* mi- ni in-|di- * * * * gne, in-|
 f6 ed f4 e4 | z4 f8 c4 | f8 e4 e4- | e4 e4 d4 B4 | d6 d2 G2 B3 ABc | d6 d2 e4 g4- | %46
w: di- * * * gne,|re- us|e- rit cor-|* po- ris et|san- gui- nis Do- * * *|* mi- ni, san-|
 g2 f2 e4 d6 c2 | B4 e6 d2 e2 f2 | e8 d6 g2 | f4 d4 f6 a2 | g4 e4 z4 B4- | B4 e4 d4 B4 | z4 e8 g4 | %53
w: * gui- nis Do- mi-|ni, Do- * * mi-|ni. Al- le-|lu- ia. Al- le-|lu- ia. Al-|* le- lu- ia.|Al- le-|
 ^f4 d2 a4 gf ef g2- | g2 ^fe f4 g4 e4- | e2 d2 c2 B2 c4 d4 | e3 d c2 e2 | !fermata!d16 |] %58
w: lu- ia. Al- le- * lu- * *|* * * * ia. Al-|* le- lu- ia. Al- le-|lu- * * *|ia.|
V:3
 [Cf]2 |[M:4/2] d12 ^c2 d2 | G8 d8 | d6 d2 d8 | e8 d8 | f8 e4 d4- | d2 d2 ^c4 d8- | d4 d4 d4 A4 | %8
w: |Quo- ti- es-|cun- que,|quo- ti- es-|cun- que|man- du- ca-|* bi- tis pa-|* nem hunc, et|
 d6 d2 c4 B4 | A8 D8 | z16 | z4 D4 A6 A2 | G4 F4 E8 | A6 c2 B8 | G4 z4 d8 | e8 f6 e2 | %16
w: ca- li- cem bi-|be- tis,||et ca- li-|cem bi- be-|tis, bi- be-|tis, mor-|tem Do- mi-|
 d4 z4 z4 A4- | A4 B4 c6 B2 | A2 G2 G8 ^F4 | G6 G2 D8 | z8 d8 | B4 c8 B4 | A4 B8 A2 G2 | %23
w: ni, mor-|* tem Do- mi-|ni an- nun- ti-|a- bi- tis|do-|nec ve- ni-|at, ve- * *|
 ^F4 G4 A4 d4- | d2 c2 A8 c4 | f8 e4 G4- | G2 A2 B2 c2 d6 d2 | G8 G6 A2 | B2 c2 d2 e2 f6 e2 | %29
w: * ni- at: i-|* ta- que qui-|cun- que man-|* du- ca- * * ve-|rit pa- *||
 c8 z4 C4- | C2 D2 E2 F2 G4 G4- | G4 ^F4 G8 | z16 | z16 | z8 z4 G4 | d6 c2 B4 e4- | %36
w: nem, pa-|* * * * nem, pa-|* * nem,|||et|bi- be- rit ca-|
 e2 d2 c4 f6 e2 | d4 G4 c6 B2 | A2 G2 G8 ^F4 | G4 A4 B2 G2 z4 | A4 d6 ^cB c4 | d8 z4 A4- | %42
w: * li- cem Do- mi-|ni, in- di- *||gne, in- di- gne,|in- di- * * *|gne, re-|
 A4 A4 c8 | G4 G8 G4 | ^F4 G4 E6 G2 | D4 z2 G4 F2 E4 | c6 B2 A4 A4 | G16 | z4 G8 _B4 | A4 F4 z8 | %50
w: * us e-|rit cor- po-|ris et san- gui-|nis Do- mi- ni,|Do- * * mi-|ni.|Al- le-|lu- ia.|
 G6 c2 B4 G4 | E6 ^F2 G6 FE | ^F4 G2 G4 G2 G4 | A4 ^F8 G4 | ABcB A4 G8 | G6 G2 E2 C2 G4- | %56
w: Al- le- lu- ia.|Al- le- lu- * *|* ia. Al- le- lu-|ia. Al- le-|lu- * * * * ia.|Al- le- lu- ia. Al-|
 G2 C2 c4- | c4 B2 A2 !fermata!B8 |] %58
w: * le- lu-|* * * ia.|
V:4
 [G,,D]2 |[M:4/2] z16 | z16 | G,12 ^F,2 G,2 | C,8 G,8 | F,8 C,4 D,4- | D,2 D,2 A,,4 G,,6 A,,2 | %7
w: |||Quo- ti- es-|cun- que|man- du- ca-|* bi- tis pa- *|
 B,,4 G,,4 D,8- | D,8 z8 | z4 A,,4 A,6 A,2 | G,4 F,4 E,8 | D,8 z8 | z4 A,4 B,4 C4- | %13
w: * nem hunc,|_|et ca- li-|cem bi- be-|tis,|mor- tem Do-|
 C2 B,2 A,4 G,4 G,4- | G,4 F,4 D,4 G,4 | C,8 z4 D,4- | D,4 E,4 F,6 E,2 | D,8 C,4 C,4- | %18
w: * mi- ni an- nun-|* ti- a- bi-|tis, mor-|* tem Do- mi-|ni an- nun-|
 C,4 B,,4 A,,4 D,4 | G,,4 G,8 ^F,4 | G,6 C,2 D,8 | z8 G,8 | ^F,4 G,8 C,4 | D,16 | F,12 F,4 | %25
w: * ti- a- bi-|tis do- nec|ve- ni- at,|do-|nec ve- ni-|at:|i- ta-|
 F,8 C,8 | E,8 D,4 G,4- | G,2 A,2 B,2 C2 D6 D2 | G,4 D,6 E,2 F,2 G,2 | A,2 B,2 C4 C,6 D,2 | %30
w: que qui-|cun- que man-|* du- ca- * * ve-|rit pa- * * *|* * nem, pa- *|
 E,2 F,2 G,4 G,,6 A,,2 | B,,2 C,2 D,4 G,,8 | z16 | z16 | z16 | D,8 E,6 D,2 | C,4 F,6 E,2 D,4 | %37
w: * * nem, pa- *|* * * nem,||||et bi- be-|rit ca- li- cem|
 G,6 F,2 E,4 A,,4 | C,4 G,,4 D,8 | G,,4 D,4 G,6 F,E, | D,2 E,2 F,2 G,2 A,8 | D,8 F,8- | F,8 C,8 | %43
w: Do- mi- ni, in-|di- * *|gne, in- di- * *||gne, re-|* us|
 C,8 G,,8 | z4 G,8 G,4 | ^F,4 G,4 C,8- | C,4 C,4 D,8 | E,6 D,2 C,2 B,,2 C,4- | C,4 C,4 G,,8 | %49
w: e- rit|cor- po-|ris et san-|* gui- nis|Do- * * * *|* mi- ni.|
 z4 D,8 F,4 | E,4 C,4 z4 G,4- | G,4 C4 B,4 G,4 | z4 C,8 E,4 | D,16- | D,8 G,,4 C,4- | %55
w: Al- le-|lu- ia. Al-|* le- lu- ia.|Al- le-|lu-|* ia. Al-|
 C,2 B,,2 C,2 G,,2 C,4 B,,4 | C,8 | !fermata!G,,16 |] %58
w: * le- lu- ia. Al- le-|lu-|ia.|

